X:1
T:Rangoon, irr.
T:Rangoon, irr.
T:Charles Wood, 1904
T:Public Domain Courtesy of the Cyber Hymnal™
C:Charles Wood, 1904
Z:Public Domain
Z:Courtesy of the Cyber Hymnal™
%%score ( 1 2 ) ( 3 4 )
L:1/8
Q:1/4=110
M:4/4
K:D
V:1 treble 
V:2 treble 
V:3 bass 
V:4 bass 
V:1
 D2 [DF]>[DF] [EA]2 A2 | [Dd]6 [DA][DF] | [FB]2 [FA]>[EF] [DG]2 ([CA][CA]) | [DF]6 [CF]>[CF] | %4
 [DF]2 [FB]>[EB] [Dd]2 ([Fd][Fd]) | c6 ^G>G | [FA]2 [Ac]>[Ad] [Ae]2 [^Ge]2 | A6 [A,A]>[B,B] | %8
 [=C=c]2 [Gc]2 [Gc]2 [GB]2 | [E=c]6 [G,G]>[A,A] | [_B,_B]2 [=FB]>[GB] [FB]2 [FA]2 | [D_B]6 z2 | %12
 d4 [DFA]2 F2 [D-G]2 | A4 (z2 [CE]2) | D8 |] %15
V:2
 D2 x2 (F>E) x2 | x8 | x8 | x8 | x8 | F4 ^E2 ^G>G | x8 | A6 x2 | x8 | x8 | x8 | x8 | %12
 [D-E_B]2 F2 x6 | D2 C2 A4 | D8 |] %15
V:3
 [D,F,]2 [B,,B,]>[B,,B,] [A,,C]2 C2 | ([F,A,]4 [E,G,]2) [D,F,][D,A,] | %2
 [B,,D]2 [D,D]>[D,C] [E,B,]2 ([A,,A,][A,,A,]) | [D,A,]6 [F,^A,]>[F,A,] | %4
 [B,,B,]2 [D,B,]>[C,B,] [B,,B,]2 ([B,,A,][B,,A,]) | [C,^G,]6 [E,C]>[E,C] | %6
 [F,C]2 [F,A,]>[F,B,] [E,C]2 [E,B,]2 | [A,C]6 A,>B, | =C2 E2 [G,D]2 [G,D]2 | [=C,=C]6 G,>A, | %10
 _B,2 [D,D]>[_E,D] [=F,=C]2 [F,C]2 | [_B,,_B,]6 ([B,,B,]>[A,,A,] | D4) [F,,F,A,]2 F,2 [=B,,D,G,]2 | %13
 [A,,E,A,]4 (z2 [A,,E,G,]2) | [D,,D,F,]8 |] %15
V:4
 x6 (A,>G,) | x8 | x8 | x8 | x8 | x8 | x8 | x6 A,>B, | =C2 (E,>=F,) x4 | x6 G,>A, | _B,2 x6 | x8 | %12
 [G,,G,_B,]2 F,2 x6 | x4 A,4 | x8 |] %15

